X:1
T: Blin' Jamie
C:
R:Strathspey
Q:128
K:D
M:4/4
L:1/16
|:A4 B3A FA3 d4|edc2 d3A B3E E3B|A4 B3A FA3 d4|edc2 d3A F3D D4|
A4 B3A FA3 d4|edc2 d3A B3E E3B|A4 B3A FA3 d4|edc2 d3A F3D D2g2|
f3d c3d ABc2 d3f|g3e ^d3e Bc^d2 e2g2|f3d c3d ABc2 d3f|edc2 d2A2 F2D2 D2g2|
f3d c3d ((3A2B2c2) ((3d2e2f2)|g3e ^d3e ((3B2c2^d2) ((3e2f2g2)|((3f2e2d2) ((3e2d2c2) ((3d2c2B2) ((3c2B2A2)|((3B2A2G2) ((3A2B2c2) d2D2 D4:|
